icon-themes/sifr_svg/cmd/sc_numberformattime.svg

<svg viewBox="0 0 16 16" xmlns="http://www.w3.org/2000/svg"><path d="m2 1c-.554 0-1 .446-1 1v12c0 .554.446 1 1 1h12c.554 0 1-.446 1-1v-12c0-.554-.446-1-1-1zm1 2h10v10h-10zm3 1v3 2h4v-2h-2v-3z" fill="#555753"/></svg>

<svg xmlns="http://www.w3.org/2000/svg" viewBox="0 0 16 16">
  <path
     style="fill:#555753"
     d="M 2 1 C 1.446 1 1 1.446 1 2 L 1 14 C 1 14.554 1.446 15 2 15 L 14 15 C 14.554 15 15 14.554 15 14 L 15 2 C 15 1.446 14.554 1 14 1 L 2 1 z M 3 3 L 13 3 L 13 13 L 3 13 L 3 3 z M 6 4 L 6 7 L 6 9 L 10 9 L 10 7 L 8 7 L 8 4 L 6 4 z "
     />
</svg>
